X:1
T:Catholic Boys
B:Bayard #444
M:6/8
L:1/8
Q:1/8=300
K:G
|: d|gfg efg|dBG AGE|DGG AGA|BAA A2d|gfg efg|dBG AGE|DGG AGA|BGG G2 :|
|: d|Bdd edd|gdd edd|Bdd gfg|eaa a2d|gfg efg|dBG AGE|DGG AGA|BGG G2 :|
